X: 21971
T: Kitty Lie Over
R: jig
M: 6/8
K: Dmajor
AFD DFA|Add B2 A|ABA F3|GFG EFG|
AFD DFA|Add B2 A|ABA F2 E|1 EDD d2B:|2 EDD D3||
f2d ede|fdd d2 e|fef def|g2e efg|
fed B2A|AdF G2B|ABA F2 E|EDD D3|
fdd ede|fdd d2 e|fef def|g2e efg|
afd B2A|AdF G2B|ABA F2 E|EDD d2B||

